packages/icons/web/shopping_cart_filled_large.svg

<svg width="24" height="24" viewBox="0 0 24 24" fill="none" xmlns="http://www.w3.org/2000/svg">
<path fill-rule="evenodd" clip-rule="evenodd" d="M4.5 3C4.94392 3 5.33471 3.29266 5.45961 3.71865L5.83529 5H19.6398C20.3144 5 20.7955 5.65434 20.5943 6.29827L18.7193 12.2983C18.5888 12.7157 18.2022 13 17.7648 13H8.18084L8.7489 14.9375H8.75994H8.77366H8.78748H8.8014H8.81542H8.82954H8.84377H8.85809H8.87252H8.88704H8.90167H8.91639H8.93122H8.94613H8.96115H8.97626H8.99147H9.00678H9.02217H9.03767H9.05326H9.06894H9.08471H9.10057H9.11653H9.13258H9.14872H9.16495H9.18127H9.19768H9.21417H9.23076H9.24743H9.26419H9.28103H9.29797H9.31498H9.33209H9.34927H9.36654H9.38389H9.40133H9.41885H9.43645H9.45413H9.47189H9.48973H9.50765H9.52566H9.54373H9.56189H9.58013H9.59844H9.61683H9.63529H9.65383H9.67244H9.69113H9.70989H9.72873H9.74763H9.76662H9.78567H9.80479H9.82398H9.84325H9.86258H9.88198H9.90145H9.92099H9.9406H9.96027H9.98001H9.99981H10.0197H10.0396H10.0596H10.0797H10.0998H10.12H10.1403H10.1606H10.1809H10.2014H10.2219H10.2424H10.263H10.2837H10.3044H10.3252H10.3461H10.367H10.3879H10.4089H10.43H10.4511H10.4723H10.4935H10.5148H10.5361H10.5575H10.5789H10.6004H10.622H10.6436H10.6652H10.6869H10.7086H10.7304H10.7522H10.7741H10.796H10.8179H10.84H10.862H10.8841H10.9062H10.9284H10.9506H10.9729H10.9952H11.0175H11.0399H11.0624H11.0848H11.1073H11.1299H11.1524H11.175H11.1977H11.2204H11.2431H11.2659H11.2886H11.3115H11.3343H11.3572H11.3801H11.4031H11.4261H11.4491H11.4721H11.4952H11.5183H11.5414H11.5646H11.5878H11.611H11.6342H11.6575H11.6808H11.7041H11.7274H11.7508H11.7742H11.7976H11.821H11.8444H11.8679H11.8914H11.9149H11.9385H11.962H11.9856H12.0092H12.0328H12.0564H12.08H12.1037H12.1273H12.151H12.1747H12.1984H12.2221H12.2459H12.2696H12.2934H12.3171H12.3409H12.3647H12.3885H12.4123H12.4361H12.46H12.4838H12.5076H12.5315H12.5553H12.5792H12.603H12.6269H12.6507H12.6746H12.6985H12.7224H12.7462H12.7701H12.794H12.8179H12.8417H12.8656H12.8895H12.9133H12.9372H12.9611H12.9849H13.0088H13.0326H13.0565H13.0803H13.1042H13.128H13.1518H13.1756H13.1994H13.2232H13.247H13.2707H13.2945H13.3183H13.342H13.3657H13.3894H13.4131H13.4368H13.4605H13.4841H13.5078H13.5314H13.555H13.5786H13.6022H13.6257H13.6493H13.6728H13.6963H13.7197H13.7432H13.7666H13.79H13.8134H13.8368H13.8601H13.8835H13.9068H13.93H13.9533H13.9765H13.9997H14.0228H14.046H14.0691H14.0922H14.1152H14.1382H14.1612H14.1842H14.2071H14.23H14.2529H14.2757H14.2985H14.3213H14.344H14.3667H14.3894H14.412H14.4346H14.4571H14.4796H14.5021H14.5245H14.5469H14.5693H14.5916H14.6139H14.6361H14.6583H14.6804H14.7025H14.7246H14.7466H14.7686H14.7905H14.8124H14.8342H14.856H14.8778H14.8995H14.9211H14.9427H14.9642H14.9857H15.0072H15.0286H15.0499H15.0712H15.0925H15.1136H15.1348H15.1559H15.1769H15.1979H15.2188H15.2396H15.2604H15.2812H15.3019H15.3225H15.343H15.3636H15.384H15.4044H15.4247H15.445H15.4652H15.4853H15.5054H15.5254H15.5454H15.5653H15.5851H15.6048H15.6245H15.6442H15.6637H15.6832H15.7026H15.722H15.7413H15.7605H15.7796H15.7987H15.8177H15.8366H15.8554H15.8742H15.8929H15.9116H15.9301H15.9486H15.967H15.9853H16.0036H16.0218H16.0399H16.0579H16.0758H16.0937H16.1115H16.1292H16.1468H16.1643H16.1818H16.1992H16.2165H16.2337H16.2508H16.2678H16.2848H16.3016H16.3184H16.3351H16.3517H16.3682H16.3847H16.401H16.4173H16.4334H16.4495H16.4655H16.4814H16.4972H16.5129H16.5285H16.544H16.5594H16.5747H16.59H16.6051H16.6201H16.6351H16.6499H16.6647H16.6793H16.6939H16.7083H16.7227H16.7369H16.7511H16.7651H16.7791H16.7929H16.8067H16.8203H16.8338H16.8473H16.8606H16.8738H16.8869H16.8999H16.9128H16.9256H16.9383H16.9508H16.9633H16.9756H16.9879H17C17.5523 14.9375 18 15.3852 18 15.9375C18 16.4898 17.5523 16.9375 17 16.9375H16.9879H16.9756H16.9633H16.9508H16.9383H16.9256H16.9128H16.8999H16.8869H16.8738H16.8606H16.8473H16.8338H16.8203H16.8067H16.7929H16.7791H16.7651H16.7511H16.7369H16.7227H16.7083H16.6939H16.6793H16.6647H16.6499H16.6351H16.6201H16.6051H16.59H16.5747H16.5594H16.544H16.5285H16.5129H16.4972H16.4814H16.4655H16.4495H16.4334H16.4173H16.401H16.3847H16.3682H16.3517H16.3351H16.3184H16.3016H16.2848H16.2678H16.2508H16.2337H16.2165H16.1992H16.1818H16.1643H16.1468H16.1292H16.1115H16.0937H16.0758H16.0579H16.0399H16.0218H16.0036H15.9853H15.967H15.9486H15.9301H15.9116H15.8929H15.8742H15.8554H15.8366H15.8177H15.7987H15.7796H15.7605H15.7413H15.722H15.7026H15.6832H15.6637H15.6442H15.6245H15.6048H15.5851H15.5653H15.5454H15.5254H15.5054H15.4853H15.4652H15.445H15.4247H15.4044H15.384H15.3636H15.343H15.3225H15.3019H15.2812H15.2604H15.2396H15.2188H15.1979H15.1769H15.1559H15.1348H15.1136H15.0925H15.0712H15.0499H15.0286H15.0072H14.9857H14.9642H14.9427H14.9211H14.8995H14.8778H14.856H14.8342H14.8124H14.7905H14.7686H14.7466H14.7246H14.7025H14.6804H14.6583H14.6361H14.6139H14.5916H14.5693H14.5469H14.5245H14.5021H14.4796H14.4571H14.4346H14.412H14.3894H14.3667H14.344H14.3213H14.2985H14.2757H14.2529H14.23H14.2071H14.1842H14.1612H14.1382H14.1152H14.0922H14.0691H14.046H14.0228H13.9997H13.9765H13.9533H13.93H13.9068H13.8835H13.8601H13.8368H13.8134H13.79H13.7666H13.7432H13.7197H13.6963H13.6728H13.6493H13.6257H13.6022H13.5786H13.555H13.5314H13.5078H13.4841H13.4605H13.4368H13.4131H13.3894H13.3657H13.342H13.3183H13.2945H13.2707H13.247H13.2232H13.1994H13.1756H13.1518H13.128H13.1042H13.0803H13.0565H13.0326H13.0088H12.9849H12.9611H12.9372H12.9133H12.8895H12.8656H12.8417H12.8179H12.794H12.7701H12.7462H12.7224H12.6985H12.6746H12.6507H12.6269H12.603H12.5792H12.5553H12.5315H12.5076H12.4838H12.46H12.4361H12.4123H12.3885H12.3647H12.3409H12.3171H12.2934H12.2696H12.2459H12.2221H12.1984H12.1747H12.151H12.1273H12.1037H12.08H12.0564H12.0328H12.0092H11.9856H11.962H11.9385H11.9149H11.8914H11.8679H11.8444H11.821H11.7976H11.7742H11.7508H11.7274H11.7041H11.6808H11.6575H11.6342H11.611H11.5878H11.5646H11.5414H11.5183H11.4952H11.4721H11.4491H11.4261H11.4031H11.3801H11.3572H11.3343H11.3115H11.2886H11.2659H11.2431H11.2204H11.1977H11.175H11.1524H11.1299H11.1073H11.0848H11.0624H11.0399H11.0175H10.9952H10.9729H10.9506H10.9284H10.9062H10.8841H10.862H10.84H10.8179H10.796H10.7741H10.7522H10.7304H10.7086H10.6869H10.6652H10.6436H10.622H10.6004H10.5789H10.5575H10.5361H10.5148H10.4935H10.4723H10.4511H10.43H10.4089H10.3879H10.367H10.3461H10.3252H10.3044H10.2837H10.263H10.2424H10.2219H10.2014H10.1809H10.1606H10.1403H10.12H10.0998H10.0797H10.0596H10.0396H10.0197H9.99981H9.98001H9.96027H9.9406H9.92099H9.90145H9.88198H9.86258H9.84325H9.82398H9.80479H9.78567H9.76662H9.74763H9.72873H9.70989H9.69113H9.67244H9.65383H9.63529H9.61683H9.59844H9.58013H9.56189H9.54373H9.52566H9.50765H9.48973H9.47189H9.45413H9.43645H9.41885H9.40133H9.38389H9.36654H9.34927H9.33209H9.31498H9.29797H9.28103H9.26419H9.24743H9.23076H9.21417H9.19768H9.18127H9.16495H9.14872H9.13258H9.11653H9.10057H9.08471H9.06894H9.05326H9.03767H9.02217H9.00678H8.99147H8.97626H8.96115H8.94613H8.93122H8.91639H8.90167H8.88704H8.87252H8.85809H8.84377H8.82954H8.81542H8.8014H8.78748H8.77366H8.75994H8.74634H8.73283H8.71943H8.70613H8.69295H8.67986H8.66689H8.65402H8.64126H8.62861H8.61607H8.60363H8.59131H8.5791H8.567H8.55501H8.54314H8.53137H8.51973H8.50819H8.49677H8.48546H8.47427H8.4632H8.45224H8.4414H8.43068H8.42007H8.40958H8.39922H8.38897H8.37884H8.36884H8.35895H8.34919H8.33955H8.33003H8.32063H8.31136H8.30222H8.2932H8.2843H8.27553H8.26689H8.25837H8.24999H8.24173H8.23359H8.22559H8.21772H8.20998H8.20237H8.19489H8.18754H8.18033H8.17324H8.1663H8.15948H8.1528H8.14625H8.13984H8.13357H8.12743H8.12144H8.11557H8.10985H8.10427H8.09882H8.09351H8.08835H8.08332H8.07844H8.0737H8.0691H8.06464H8.06033H8.05616H8.05214H8.04826H8.04453H8.04094H8.0375H8.03421H8.03106H8.02807H8.02522H8.02252H8.01997H8.01757H8.01532H8.01323H8.01128H8.00949H8.00785H8.00637H8.00504H8.00386H8.00284H8.00197H8.00127H8.00071H8.00032H8.00008L8 15.9375V16.9375C7.55608 16.9375 7.16529 16.6448 7.04039 16.2188L3.7511 5H3C2.44771 5 2 4.55228 2 4C2 3.44772 2.44771 3 3 3H4.5ZM10.1339 18.3661C9.89946 18.1317 9.58152 18 9.25 18C9.00278 18 8.7611 18.0733 8.55554 18.2107C8.34997 18.348 8.18976 18.5432 8.09515 18.7716C8.00054 19.0001 7.97579 19.2514 8.02402 19.4939C8.07225 19.7363 8.19129 19.9591 8.36612 20.1339C8.54094 20.3087 8.76367 20.4278 9.00614 20.476C9.24861 20.5242 9.49994 20.4995 9.72835 20.4049C9.95675 20.3102 10.152 20.15 10.2893 19.9445C10.4267 19.7389 10.5 19.4972 10.5 19.25C10.5 18.9185 10.3683 18.6005 10.1339 18.3661ZM15.75 18C16.0815 18 16.3995 18.1317 16.6339 18.3661C16.8683 18.6005 17 18.9185 17 19.25C17 19.4972 16.9267 19.7389 16.7893 19.9445C16.652 20.15 16.4568 20.3102 16.2284 20.4049C15.9999 20.4995 15.7486 20.5242 15.5061 20.476C15.2637 20.4278 15.0409 20.3087 14.8661 20.1339C14.6913 19.9591 14.5722 19.7363 14.524 19.4939C14.4758 19.2514 14.5005 19.0001 14.5952 18.7716C14.6898 18.5432 14.85 18.348 15.0555 18.2107C15.2611 18.0733 15.5028 18 15.75 18Z" fill="#212933"/>
</svg>

<svg width="24" height="24" fill="none" xmlns="http://www.w3.org/2000/svg">
    <path fill-rule="evenodd" clip-rule="evenodd" d="M4.5 3a1 1 0 01.96.719L5.835 5H19.64a1 1 0 01.954 1.298l-1.875 6a1 1 0 01-.954.702H8.18l.568 1.938H17a1 1 0 110 2H8.001l-.001-1v1a1 1 0 01-.96-.72L3.751 5H3a1 1 0 110-2h1.5zm5.634 15.366a1.25 1.25 0 10-1.768 1.768 1.25 1.25 0 001.768-1.768zM15.75 18a1.25 1.25 0 110 2.5 1.25 1.25 0 010-2.5z" fill="currentColor"/>
</svg>
